; generated by PrusaSlicer 2.2.0+win64 on 2020-09-18 at 14:50:09 UTC

; 

; external perimeters extrusion width = 0.45mm
; perimeters extrusion width = 0.45mm
; infill extrusion width = 0.45mm
; solid infill extrusion width = 0.45mm
; top infill extrusion width = 0.40mm
; first layer extrusion width = 0.42mm

M73 P0 R171
M73 Q0 S172
M201 X1000 Y1000 Z200 E5000 ; sets maximum accelerations, mm/sec^2
M203 X200 Y200 Z12 E120 ; sets maximum feedrates, mm/sec
M204 P1250 R1250 T1250 ; sets acceleration (P, T) and retract acceleration (R), mm/sec^2
M205 X8.00 Y8.00 Z0.40 E4.50 ; sets the jerk limits, mm/sec
M205 S0 T0 ; sets the minimum extruding and travel feed rate, mm/sec
M107
M862.3 P "MK3S" ; printer model check
M862.1 P0.4 ; nozzle diameter check
M115 U3.9.0 ; tell printer latest fw version
G90 ; use absolute coordinates
M83 ; extruder relative mode
M104 S215 ; set extruder temp
M140 S60 ; set bed temp
M190 S60 ; wait for bed temp
M109 S215 ; wait for extruder temp
G28 W ; home all without mesh bed level
G80 ; mesh bed leveling
G1 Y-3.0 F1000.0 ; go outside print area
G92 E0.0
G1 X60.0 E9.0 F1000.0 ; intro line
M73 Q0 S172
M73 P0 R170
G1 X100.0 E12.5 F1000.0 ; intro line
G92 E0.0
M221 S95
G21 ; set units to millimeters
G90 ; use absolute coordinates
M83 ; use relative distances for extrusion
M900 K0.06 ; Filament gcode LA 1.5
M900 K30 ; Filament gcode LA 1.0
;BEFORE_LAYER_CHANGE
G92 E0.0
;0.2


G1 E-0.80000 F2100.00000
G1 Z0.600 F10800.000
;AFTER_LAYER_CHANGE
;0.2
G1 X74.707 Y84.184
G1 Z0.200
G1 E0.80000 F2100.00000
M204 S1000
G1 F1200.000
G1 X75.273 Y83.537 E0.02696
G1 X151.992 Y22.983 E3.06447
G1 X152.577 Y22.720 E0.02012
G1 X153.212 Y22.623 E0.02012
G1 X173.254 Y22.623 E0.62841
G1 X174.156 Y22.802 E0.02884
G1 X174.920 Y23.308 E0.02872
G1 X175.437 Y24.069 E0.02884
G1 X175.627 Y24.968 E0.02884
G1 X175.627 Y185.004 E5.01780
G1 X175.541 Y185.632 E0.01989
G1 X175.293 Y186.216 E0.01989
G1 X174.918 Y186.694 E0.01906
G1 X174.434 Y187.061 E0.01906
G1 X173.872 Y187.294 E0.01906
G1 X173.270 Y187.377 E0.01906
G1 X76.742 Y187.377 E3.02656
G1 X76.118 Y187.291 E0.01977
G1 X75.534 Y187.043 E0.01989
G1 X75.056 Y186.668 E0.01906
G1 X74.689 Y186.184 E0.01906
G1 X74.456 Y185.622 E0.01906
G1 X74.373 Y185.020 E0.01906
G1 X74.373 Y85.392 E3.12376
G1 X74.459 Y84.768 E0.01977
G1 X74.684 Y84.240 E0.01800
G1 F8640.000
G1 X75.273 Y83.537 E-0.21176
G1 X77.137 Y82.066 E-0.54824
G1 E-0.04000 F2100.00000
G1 Z0.800 F10800.000
G1 X125.356 Y83.000
G1 Z0.200
G1 E0.80000 F2100.00000
G1 F1200.000
G1 X125.438 Y82.380 E0.01959
G1 X125.677 Y81.803 E0.01959
G1 X126.057 Y81.307 E0.01959
G1 X126.553 Y80.927 E0.01959
G1 X127.130 Y80.688 E0.01959
G1 X127.750 Y80.606 E0.01959
G1 X128.370 Y80.688 E0.01959
G1 X128.947 Y80.927 E0.01959
G1 X129.443 Y81.307 E0.01959
G1 X129.823 Y81.803 E0.01959
G1 X130.062 Y82.380 E0.01959
G1 X130.144 Y83.000 E0.01959
G1 X130.062 Y83.620 E0.01959
G1 X129.823 Y84.197 E0.01959
G1 X129.443 Y84.693 E0.01959
G1 X128.947 Y85.073 E0.01959
G1 X128.370 Y85.312 E0.01959
G1 X127.750 Y85.394 E0.01959
G1 X127.130 Y85.312 E0.01959
G1 X126.553 Y85.073 E0.01959
G1 X126.057 Y84.693 E0.01959
G1 X125.677 Y84.197 E0.01959
G1 X125.438 Y83.620 E0.01959
G1 X125.364 Y83.059 E0.01771
G1 X125.738 Y83.010 F10800.000
G1 F1200.000
G1 X125.805 Y82.479 E0.01680
G1 X126.006 Y81.993 E0.01648
G1 X126.326 Y81.576 E0.01648
G1 X126.743 Y81.256 E0.01648
G1 X127.229 Y81.055 E0.01648
G1 X127.750 Y80.986 E0.01648
G1 X128.271 Y81.055 E0.01648
G1 X128.757 Y81.256 E0.01648
G1 X129.174 Y81.576 E0.01648
G1 X129.494 Y81.993 E0.01648
G1 X129.695 Y82.479 E0.01648
G1 X129.764 Y83.000 E0.01648
G1 X129.695 Y83.521 E0.01648
G1 X129.494 Y84.007 E0.01648
G1 X129.174 Y84.424 E0.01648
G1 X128.757 Y84.744 E0.01648
G1 X128.347 Y84.914 E0.01392
G1 X128.271 Y84.945 E0.00257
G1 X127.750 Y85.014 E0.01648
G1 X127.229 Y84.945 E0.01648
G1 X126.743 Y84.744 E0.01648
G1 X126.326 Y84.424 E0.01648
G1 X126.006 Y84.007 E0.01648
G1 X125.805 Y83.521 E0.01648
G1 X125.746 Y83.070 E0.01427
G1 X125.391 Y82.812 F10800.000
G1 F8640.000
G1 X125.805 Y82.479 E-0.13713
G1 X126.006 Y81.993 E-0.12137
G1 X126.326 Y81.576 E-0.12137
G1 X126.743 Y81.256 E-0.12137
G1 X127.229 Y81.055 E-0.12137
G1 X127.750 Y80.986 E-0.12137
G1 X127.819 Y80.996 E-0.01601
G1 E-0.04000 F2100.00000
G1 Z0.800 F10800.000
G1 X168.057 Y34.693
G1 Z0.200
G1 E0.80000 F2100.00000
G1 F1200.000
G1 X167.677 Y34.197 E0.01959
G1 X167.438 Y33.620 E0.01959
G1 X167.356 Y33.000 E0.01959
G1 X167.438 Y32.380 E0.01959
G1 X167.677 Y31.803 E0.01959
G1 X168.057 Y31.307 E0.01959
G1 X168.553 Y30.927 E0.01959
G1 X169.130 Y30.688 E0.01959
G1 X169.750 Y30.606 E0.01959
G1 X170.370 Y30.688 E0.01959
G1 X170.947 Y30.927 E0.01959
G1 X171.443 Y31.307 E0.01959
G1 X171.823 Y31.803 E0.01959
G1 X172.062 Y32.380 E0.01959
G1 X172.144 Y33.000 E0.01959
G1 X172.062 Y33.620 E0.01959
G1 X171.823 Y34.197 E0.01959
G1 X171.443 Y34.693 E0.01959
G1 X170.947 Y35.073 E0.01959
G1 X170.370 Y35.312 E0.01959
G1 X169.750 Y35.394 E0.01959
G1 X169.130 Y35.312 E0.01959
G1 X168.553 Y35.073 E0.01959
G1 X168.105 Y34.729 E0.01771
G1 X168.334 Y34.430 F10800.000
G1 F1200.000
G1 X168.006 Y34.007 E0.01679
G1 X167.805 Y33.521 E0.01648
G1 X167.736 Y33.000 E0.01648
G1 X167.805 Y32.479 E0.01648
G1 X168.006 Y31.993 E0.01648
G1 X168.326 Y31.576 E0.01648
G1 X168.743 Y31.256 E0.01648
G1 X169.229 Y31.055 E0.01648
G1 X169.750 Y30.986 E0.01648
G1 X170.271 Y31.055 E0.01648
G1 X170.757 Y31.256 E0.01648
G1 X171.174 Y31.576 E0.01648
G1 X171.494 Y31.993 E0.01648
G1 X171.695 Y32.479 E0.01648
G1 X171.764 Y33.000 E0.01648
G1 X171.695 Y33.521 E0.01648
G1 X171.494 Y34.007 E0.01648
G1 X171.174 Y34.424 E0.01648
G1 X170.757 Y34.744 E0.01648
G1 X170.271 Y34.945 E0.01648
G1 X169.750 Y35.014 E0.01648
G1 X169.229 Y34.945 E0.01648
G1 X168.743 Y34.744 E0.01648
G1 X168.382 Y34.467 E0.01427
G1 X167.948 Y34.535 F10800.000
G1 F8640.000
G1 X168.006 Y34.007 E-0.13713
G1 X167.805 Y33.521 E-0.12137
G1 X167.736 Y33.000 E-0.12137
G1 X167.805 Y32.479 E-0.12137
G1 X168.006 Y31.993 E-0.12137
G1 X168.326 Y31.576 E-0.12137
G1 X168.381 Y31.534 E-0.01601
G1 E-0.04000 F2100.00000
G1 Z0.800 F10800.000
G1 X169.750 Y173.606
G1 Z0.200
G1 E0.80000 F2100.00000
G1 F1200.000
G1 X170.370 Y173.688 E0.01959
G1 X170.947 Y173.927 E0.01959
G1 X171.443 Y174.307 E0.01959
G1 X171.823 Y174.803 E0.01959
G1 X172.062 Y175.380 E0.01959
G1 X172.144 Y176.000 E0.01959
G1 X172.062 Y176.620 E0.01959
G1 X171.823 Y177.197 E0.01959
G1 X171.443 Y177.693 E0.01959
G1 X170.947 Y178.073 E0.01959
G1 X170.370 Y178.312 E0.01959
G1 X169.750 Y178.394 E0.01959
G1 X169.130 Y178.312 E0.01959
G1 X168.553 Y178.073 E0.01959
G1 X168.057 Y177.693 E0.01959
G1 X167.677 Y177.197 E0.01959
G1 X167.438 Y176.620 E0.01959
G1 X167.356 Y176.000 E0.01959
G1 X167.438 Y175.380 E0.01959
G1 X167.677 Y174.803 E0.01959
G1 X168.057 Y174.307 E0.01959
G1 X168.553 Y173.927 E0.01959
G1 X169.130 Y173.688 E0.01959
G1 X169.691 Y173.614 E0.01771
G1 X169.740 Y173.988 F10800.000
G1 F1200.000
G1 X170.271 Y174.055 E0.01680
G1 X170.757 Y174.256 E0.01648
G1 X171.174 Y174.576 E0.01648
G1 X171.494 Y174.993 E0.01648
G1 X171.695 Y175.479 E0.01648
G1 X171.764 Y176.000 E0.01648
G1 X171.695 Y176.521 E0.01648
G1 X171.494 Y177.007 E0.01648
G1 X171.174 Y177.424 E0.01648
G1 X170.757 Y177.744 E0.01648
G1 X170.271 Y177.945 E0.01648
G1 X169.750 Y178.014 E0.01648
G1 X169.229 Y177.945 E0.01648
G1 X168.743 Y177.744 E0.01648
G1 X168.326 Y177.424 E0.01648
G1 X168.006 Y177.007 E0.01648
G1 X167.805 Y176.521 E0.01648
G1 X167.736 Y176.000 E0.01648
G1 X167.805 Y175.479 E0.01648
G1 X168.006 Y174.993 E0.01648
G1 X168.326 Y174.576 E0.01648
G1 X168.743 Y174.256 E0.01648
G1 X169.229 Y174.055 E0.01648
G1 X169.680 Y173.996 E0.01428
G1 X169.938 Y173.641 F10800.000
G1 F8640.000
G1 X170.271 Y174.055 E-0.13713
G1 X170.757 Y174.256 E-0.12137
G1 X171.174 Y174.576 E-0.12137
G1 X171.494 Y174.993 E-0.12137
G1 X171.695 Y175.479 E-0.12137
G1 X171.764 Y176.000 E-0.12137
G1 X171.754 Y176.069 E-0.01601
G1 E-0.04000 F2100.00000
G1 Z0.800 F10800.000
G1 X84.144 Y176.000
G1 Z0.200
G1 E0.80000 F2100.00000
G1 F1200.000
G1 X84.062 Y176.620 E0.01959
G1 X83.823 Y177.197 E0.01959
G1 X83.443 Y177.693 E0.01959
G1 X82.947 Y178.073 E0.01959
G1 X82.370 Y178.312 E0.01959
G1 X81.750 Y178.394 E0.01959
G1 X81.130 Y178.312 E0.01959
G1 X80.553 Y178.073 E0.01959
G1 X80.057 Y177.693 E0.01959
G1 X79.677 Y177.197 E0.01959
G1 X79.438 Y176.620 E0.01959
G1 X79.356 Y176.000 E0.01959
G1 X79.438 Y175.380 E0.01959
G1 X79.677 Y174.803 E0.01959
G1 X80.057 Y174.307 E0.01959
G1 X80.553 Y173.927 E0.01959
G1 X81.130 Y173.688 E0.01959
G1 X81.750 Y173.606 E0.01959
G1 X82.370 Y173.688 E0.01959
G1 X82.947 Y173.927 E0.01959
G1 X83.443 Y174.307 E0.01959
G1 X83.823 Y174.803 E0.01959
G1 X84.062 Y175.380 E0.01959
G1 X84.136 Y175.941 E0.01771
G1 X83.762 Y175.990 F10800.000
G1 F1200.000
G1 X83.695 Y176.521 E0.01680
G1 X83.494 Y177.007 E0.01648
G1 X83.174 Y177.424 E0.01648
G1 X82.757 Y177.744 E0.01648
G1 X82.271 Y177.945 E0.01648
G1 X81.750 Y178.014 E0.01648
G1 X81.229 Y177.945 E0.01648
G1 X80.743 Y177.744 E0.01648
G1 X80.326 Y177.424 E0.01648
G1 X80.006 Y177.007 E0.01648
G1 X79.805 Y176.521 E0.01648
G1 X79.736 Y176.000 E0.01648
G1 X79.805 Y175.479 E0.01648
G1 X80.006 Y174.993 E0.01648
G1 X80.326 Y174.576 E0.01648
G1 X80.743 Y174.256 E0.01648
G1 X81.229 Y174.055 E0.01648
G1 X81.750 Y173.986 E0.01648
G1 X82.271 Y174.055 E0.01648
G1 X82.757 Y174.256 E0.01648
G1 X83.174 Y174.576 E0.01648
G1 X83.494 Y174.993 E0.01648
G1 X83.695 Y175.479 E0.01648
G1 X83.754 Y175.930 E0.01428
G1 X84.109 Y176.188 F10800.000
G1 F8640.000
G1 X83.695 Y176.521 E-0.13713
G1 X83.494 Y177.007 E-0.12137
G1 X83.174 Y177.424 E-0.12137
G1 X82.757 Y177.744 E-0.12137
G1 X82.271 Y177.945 E-0.12137
G1 X81.750 Y178.014 E-0.12137
G1 X81.681 Y178.004 E-0.01601
G1 E-0.04000 F2100.00000
G1 Z0.800 F10800.000
G1 X82.370 Y168.062
G1 Z0.200
G1 E0.80000 F2100.00000
G1 F1200.000
G1 X81.750 Y168.144 E0.01959
G1 X81.130 Y168.062 E0.01959
G1 X80.553 Y167.823 E0.01959
G1 X80.057 Y167.443 E0.01959
G1 X79.677 Y166.947 E0.01959
G1 X79.438 Y166.370 E0.01959
G1 X79.356 Y165.750 E0.01959
G1 X79.438 Y165.130 E0.01959
G1 X79.677 Y164.553 E0.01959
G1 X80.057 Y164.057 E0.01959
G1 X80.553 Y163.677 E0.01959
G1 X81.130 Y163.438 E0.01959
G1 X81.750 Y163.356 E0.01959
G1 X82.370 Y163.438 E0.01959
G1 X82.947 Y163.677 E0.01959
G1 X83.443 Y164.057 E0.01959
G1 X83.823 Y164.553 E0.01959
G1 X84.062 Y165.130 E0.01959
G1 X84.144 Y165.750 E0.01959
G1 X84.062 Y166.370 E0.01959
G1 X83.823 Y166.947 E0.01959
G1 X83.443 Y167.443 E0.01959
G1 X82.947 Y167.823 E0.01959
G1 X82.425 Y168.039 E0.01771
G1 X82.281 Y167.691 F10800.000
G1 F1200.000
G1 X81.750 Y167.764 E0.01680
G1 X81.229 Y167.695 E0.01648
G1 X80.743 Y167.494 E0.01648
G1 X80.326 Y167.174 E0.01648
G1 X80.006 Y166.757 E0.01648
G1 X79.805 Y166.271 E0.01648
G1 X79.736 Y165.750 E0.01648
G1 X79.805 Y165.229 E0.01648
G1 X80.006 Y164.743 E0.01648
G1 X80.326 Y164.326 E0.01648
G1 X80.743 Y164.006 E0.01648
G1 X81.229 Y163.805 E0.01648
G1 X81.750 Y163.736 E0.01648
G1 X82.271 Y163.805 E0.01648
G1 X82.757 Y164.006 E0.01648
G1 X83.174 Y164.326 E0.01648
G1 X83.494 Y164.743 E0.01648
G1 X83.695 Y165.229 E0.01648
G1 X83.764 Y165.750 E0.01648
G1 X83.695 Y166.271 E0.01648
G1 X83.494 Y166.757 E0.01648
G1 X83.174 Y167.174 E0.01648
G1 X82.757 Y167.494 E0.01648
G1 X82.336 Y167.668 E0.01428
G1 X82.179 Y168.078 F10800.000
G1 F8640.000
G1 X81.750 Y167.764 E-0.13713
G1 X81.229 Y167.695 E-0.12137
G1 X80.743 Y167.494 E-0.12137
G1 X80.326 Y167.174 E-0.12137
G1 X80.006 Y166.757 E-0.12137
G1 X79.805 Y166.271 E-0.12137
G1 X79.796 Y166.202 E-0.01601
G1 E-0.04000 F2100.00000
G1 Z0.800 F10800.000
G1 X154.037 Y39.457
G1 Z0.200
G1 E0.80000 F2100.00000
G1 F1200.000
G1 X154.037 Y25.787 E0.42860
G1 X172.463 Y25.787 E0.57773
G1 X172.463 Y184.213 E4.96733
G1 X77.537 Y184.213 E2.97633
G1 X77.537 Y86.187 E3.07353
M73 Q0 S171
G1 X113.019 Y86.187 E1.11252
M73 P0 R169
G1 X129.537 Y73.386 E0.65523
G1 X129.537 Y53.457 E0.62486
G1 X153.985 Y39.487 E0.88287
G1 X153.660 Y39.238 F10800.000
G1 F1200.000
G1 X153.660 Y25.410 E0.43357
G1 X172.840 Y25.410 E0.60138
G1 X172.840 Y184.590 E4.99098
G1 X77.160 Y184.590 E2.99998
G1 X77.160 Y85.810 E3.09718
G1 X112.890 Y85.810 E1.12030
G1 X129.160 Y73.201 E0.64539
G1 X129.160 Y53.238 E0.62593
G1 X153.608 Y39.268 E0.88287
G1 X154.040 Y39.114 F10800.000
G1 F8640.000
G1 X153.620 Y35.976 E-0.76000
G1 E-0.04000 F2100.00000
G1 Z0.800 F10800.000
G1 X171.696 Y34.548
G1 Z0.200
G1 E0.80000 F2100.00000
G1 F1200.000
G1 X172.180 Y35.033 E0.02149
G1 X172.180 Y35.566 E0.01675
G1 X171.567 Y34.954 E0.02719
G1 X171.265 Y35.185 E0.01194
G1 X172.180 Y36.100 E0.04059
G1 X172.180 Y36.634 E0.01675
G1 X170.932 Y35.385 E0.05539
G1 X170.554 Y35.542 E0.01282
G1 X172.180 Y37.167 E0.07214
G1 X172.180 Y37.701 E0.01675
G1 X170.111 Y35.632 E0.09184
G1 X169.750 Y35.679 E0.01141
G1 X169.605 Y35.660 E0.00458
G1 X172.180 Y38.235 E0.11426
G1 X172.180 Y38.769 E0.01675
G1 X168.959 Y35.547 E0.14295
G1 X168.410 Y35.320 E0.01863
G1 X167.856 Y34.894 E0.02195
G1 X167.430 Y34.340 E0.02195
G1 X167.203 Y33.791 E0.01863
G1 X159.481 Y26.070 E0.34265
G1 X160.015 Y26.070 E0.01675
G1 X167.090 Y33.145 E0.31396
G1 X167.071 Y33.000 E0.00458
G1 X167.118 Y32.639 E0.01141
G1 X160.549 Y26.070 E0.29154
G1 X161.083 Y26.070 E0.01675
G1 X167.208 Y32.196 E0.27184
G1 X167.365 Y31.818 E0.01282
G1 X161.616 Y26.070 E0.25509
G1 X162.150 Y26.070 E0.01675
G1 X167.565 Y31.485 E0.24029
G1 X167.796 Y31.183 E0.01194
G1 X162.684 Y26.070 E0.22689
G1 X163.217 Y26.070 E0.01675
G1 X168.080 Y30.933 E0.21581
G1 X168.382 Y30.701 E0.01194
G1 X163.751 Y26.070 E0.20553
G1 X164.285 Y26.070 E0.01675
G1 X168.753 Y30.538 E0.19828
G1 X169.057 Y30.412 E0.01032
G1 X169.149 Y30.400 E0.00291
G1 X164.818 Y26.070 E0.19216
G1 X165.352 Y26.070 E0.01675
G1 X169.620 Y30.338 E0.18941
G1 X169.750 Y30.321 E0.00411
G1 X170.196 Y30.380 E0.01410
G1 X165.886 Y26.070 E0.19125
G1 X166.420 Y26.070 E0.01675
G1 X170.987 Y30.637 E0.20269
G1 X171.090 Y30.680 E0.00348
G1 X171.644 Y31.106 E0.02195
G1 X171.919 Y31.463 E0.01413
G1 X172.180 Y31.411 E0.00837
G1 X172.180 Y31.297 E0.00358
G1 X166.953 Y26.070 E0.23195
G1 X167.487 Y26.070 E0.01675
G1 X172.180 Y30.763 E0.20827
G1 X172.180 Y30.229 E0.01675
G1 X168.021 Y26.070 E0.18459
G1 X168.554 Y26.070 E0.01675
G1 X172.180 Y29.696 E0.16090
G1 X172.180 Y29.162 E0.01675
G1 X169.088 Y26.070 E0.13722
G1 X169.622 Y26.070 E0.01675
G1 X172.180 Y28.628 E0.11353
G1 X172.180 Y28.095 E0.01675
G1 X170.155 Y26.070 E0.08985
G1 X170.689 Y26.070 E0.01675
G1 X172.180 Y27.561 E0.06616
G1 X172.180 Y27.027 E0.01675
G1 X171.223 Y26.070 E0.04248
G1 X171.757 Y26.070 E0.01675
G1 X172.350 Y26.663 E0.02633
G1 F8640.000
G1 X171.757 Y26.070 E-0.19372
G1 X171.223 Y26.070 E-0.12323
G1 X172.180 Y27.027 E-0.31259
G1 X172.180 Y27.561 E-0.12323
G1 X172.158 Y27.539 E-0.00723
G1 E-0.04000 F2100.00000
G1 Z0.800 F10800.000
G1 X172.137 Y31.708
G1 Z0.200
G1 E0.80000 F2100.00000
G1 F1200.000
G1 X172.166 Y31.855 E0.00288
G1 X172.254 Y32.298 E0.00357
G1 F8640.000
G1 X172.166 Y31.855 E-0.10417
G1 E-0.69583 F2100.00000
G1 Z0.800 F10800.000
G1 X172.254 Y33.702
G1 Z0.200
G1 E0.80000 F2100.00000
G1 F1200.000
G1 X172.225 Y33.850 E0.00119
G1 X172.195 Y33.997 E0.00175
G1 X172.166 Y34.145 E0.00231
G1 X172.137 Y34.292 E0.00288
G1 F8640.000
G1 X172.166 Y34.145 E-0.03472
G1 E-0.76528 F2100.00000
G1 Z0.800 F10800.000
G1 X172.350 Y39.472
G1 Z0.200
G1 E0.80000 F2100.00000
G1 F1200.000
G1 X158.948 Y26.070 E0.59475
G1 X158.414 Y26.070 E0.01675
G1 X172.180 Y39.836 E0.61090
G1 X172.180 Y40.370 E0.01675
G1 X157.880 Y26.070 E0.63459
G1 X157.347 Y26.070 E0.01675
G1 X172.180 Y40.903 E0.65827
G1 X172.180 Y41.437 E0.01675
G1 X156.813 Y26.070 E0.68196
G1 X156.279 Y26.070 E0.01675
G1 X172.180 Y41.971 E0.70564
G1 X172.180 Y42.504 E0.01675
G1 X155.746 Y26.070 E0.72933
G1 X155.212 Y26.070 E0.01675
G1 X172.180 Y43.038 E0.75301
G1 X172.180 Y43.572 E0.01675
G1 X154.678 Y26.070 E0.77669
G1 X154.320 Y26.070 E0.01124
G1 X154.320 Y26.245 E0.00551
G1 X172.180 Y44.106 E0.79259
G1 X172.180 Y44.639 E0.01675
G1 X154.320 Y26.779 E0.79259
G1 X154.320 Y27.313 E0.01675
G1 X172.180 Y45.173 E0.79259
